svg/select.svg

<svg xmlns="http://www.w3.org/2000/svg" viewBox="0 0 24 24"><path d="M4 3h1v2H3V4a1 1 0 0 1 1-1m16 0a1 1 0 0 1 1 1v1h-2V3zm-5 2V3h2v2zm-4 0V3h2v2zM7 5V3h2v2zm14 15a1 1 0 0 1-1 1h-1v-2h2zm-6 1v-2h2v2zm-4 0v-2h2v2zm-4 0v-2h2v2zm-3 0a1 1 0 0 1-1-1v-1h2v2zm-1-6h2v2H3zm18 0v2h-2v-2zM3 11h2v2H3zm18 0v2h-2v-2zM3 7h2v2H3zm18 0v2h-2V7z"/></svg>

<?xml version="1.0" encoding="UTF-8"?><!DOCTYPE svg PUBLIC "-//W3C//DTD SVG 1.1//EN" "http://www.w3.org/Graphics/SVG/1.1/DTD/svg11.dtd"><svg xmlns="http://www.w3.org/2000/svg" xmlns:xlink="http://www.w3.org/1999/xlink" version="1.1" id="mdi-select" width="24" height="24" viewBox="0 0 24 24"><path d="M4,3H5V5H3V4A1,1 0 0,1 4,3M20,3A1,1 0 0,1 21,4V5H19V3H20M15,5V3H17V5H15M11,5V3H13V5H11M7,5V3H9V5H7M21,20A1,1 0 0,1 20,21H19V19H21V20M15,21V19H17V21H15M11,21V19H13V21H11M7,21V19H9V21H7M4,21A1,1 0 0,1 3,20V19H5V21H4M3,15H5V17H3V15M21,15V17H19V15H21M3,11H5V13H3V11M21,11V13H19V11H21M3,7H5V9H3V7M21,7V9H19V7H21Z" /></svg>
